X:415
T: Douzheng dizhuge
N: C2033
O: China,Jiangsu Dongtai
S: III, 469]
R: Xiaodiao]
M: 2/4
L: 1/16
K: F
A2A2A2d2 | c8 |
A2c2AGF2 | G8 |
G2G4A2 | d4c4 | A2G2c4 | G2AGF4 |
f2d2d2A2 | c4z4

@@@ Tune index: 6970
